material/.icons/material/coffee-off-outline.svg

<svg xmlns="http://www.w3.org/2000/svg" viewBox="0 0 24 24"><path d="M2 3.27l2 2V13c0 2.21 1.79 4 4 4h6c.5 0 1-.11 1.44-.29L17.73 19H2v2h17.73l.99 1L22 20.72 3.27 2 2 3.27M8 15c-1.1 0-2-.9-2-2V7.27L13.73 15H8M20 3H6.81l2 2H16v7.19l1.85 1.85c.09-.34.15-.68.15-1.04v-3h2c1.1 0 2-.9 2-2V5c0-1.1-.9-2-2-2m0 5h-2V5h2v3z"/></svg>

<?xml version="1.0" encoding="UTF-8"?><!DOCTYPE svg PUBLIC "-//W3C//DTD SVG 1.1//EN" "http://www.w3.org/Graphics/SVG/1.1/DTD/svg11.dtd"><svg xmlns="http://www.w3.org/2000/svg" xmlns:xlink="http://www.w3.org/1999/xlink" version="1.1" id="mdi-coffee-off-outline" width="24" height="24" viewBox="0 0 24 24"><path d="M2 3.27L4 5.27V13C4 15.21 5.79 17 8 17H14C14.5 17 15 16.89 15.44 16.71L17.73 19H2V21H19.73L20.72 22L22 20.72L3.27 2L2 3.27M8 15C6.9 15 6 14.1 6 13V7.27L13.73 15H8M20 3H6.81L8.81 5H16V12.19L17.85 14.04C17.94 13.7 18 13.36 18 13V10H20C21.1 10 22 9.1 22 8V5C22 3.9 21.1 3 20 3M20 8H18V5H20V8Z" /></svg>
